Papirus/64x64/apps/oolite.svg

<svg xmlns="http://www.w3.org/2000/svg" width="64" height="64" version="1.1">
 <path style="opacity:0.2" d="M 7.8085938,5.0039062 C 4.5715182,5.1075386 2.0007738,7.761266 2,11 v 8.15625 c 7.294e-4,2.118714 1.1187104,4.080006 2.9414062,5.160156 L 6,24.945312 v -0.40625 c -1.75e-4,1.806334 0.8133692,3.516642 2.2148438,4.65625 L 8,29.019532 v 0.324218 c 0.00258,0.14476 0.0104,0.289392 0.023438,0.433594 -0.404407,1.016416 -0.5232746,2.124042 -0.34375,3.203124 v 0.004 c -0.3726378,2.1668 0.469661,4.364062 2.1953124,5.726562 l 1.4726566,1.160156 c 0.31156,0.57611 0.715338,1.097326 1.195312,1.542968 l 4.34375,4 C 17.994058,46.433502 19.0625,47 19.0625,47 l 1.175782,1.199218 c 0.669764,0.679748 1.49199,1.189958 2.398436,1.488282 -0.354064,1.582548 -0.05252,3.241022 0.835938,4.597656 C 24.525186,58.084372 27.906502,61 32,61 c 4.093498,0 7.474814,-2.915628 8.527344,-6.714844 0.888458,-1.356634 1.190002,-3.015108 0.835938,-4.597656 0.906446,-0.298324 1.728672,-0.808534 2.398436,-1.488282 L 44.9375,47 c 0,0 1.068444,-0.566498 2.175782,-1.585938 l 4.34375,-4 c 0.479974,-0.445642 0.883752,-0.966858 1.195312,-1.542968 L 54.125,38.710938 c 1.725652,-1.3625 2.56795,-3.559762 2.195312,-5.726562 v -0.004 c 0.17952,-1.079082 0.06066,-2.186708 -0.34375,-3.203124 0.013,-0.1442 0.02084,-0.288834 0.02344,-0.433594 V 29.01944 l -0.214844,0.17578 C 57.18663,28.055704 58.000174,26.345396 58,24.539062 v 0.40625 l 1.058594,-0.628906 C 60.88129,23.236256 61.99927,21.274964 62,19.15625 V 11 C 61.999226,7.761266 59.428482,5.1075382 56.191406,5.0039062 54.776786,4.9590122 53.391826,5.4155926 52.28125,6.2929688 L 38.21875,17.398438 C 36.488736,15.975729 34.372864,15 32,15 c -2.372864,0 -4.488736,0.975729 -6.21875,2.398438 L 11.71875,6.2929688 C 10.608174,5.4155926 9.2232146,4.9590126 7.8085938,5.0039062 Z"/>
 <path style="fill:#3f3f3f" d="M 7.8085938,4.0039062 C 4.5715182,4.1075386 2.0007738,6.761266 2,10 v 8.15625 c 7.294e-4,2.118714 1.1187104,4.080006 2.9414062,5.160156 L 6,23.945312 v -0.40625 c -1.75e-4,1.806334 0.8133692,3.516642 2.2148438,4.65625 L 8,28.019532 v 0.324218 c 0.00258,0.14476 0.0104,0.289392 0.023438,0.433594 -0.404407,1.016416 -0.5232746,2.124042 -0.34375,3.203124 v 0.004 c -0.3726378,2.1668 0.469661,4.364062 2.1953124,5.726562 l 1.4726566,1.160156 c 0.31156,0.57611 0.715338,1.097326 1.195312,1.542968 l 4.34375,4 C 17.994058,45.433502 19.0625,46 19.0625,46 l 1.175782,1.199218 c 0.669764,0.679748 1.49199,1.189958 2.398436,1.488282 -0.354064,1.582548 -0.05252,3.241022 0.835938,4.597656 C 24.525186,57.084372 27.906502,60 32,60 c 4.093498,0 7.474814,-2.915628 8.527344,-6.714844 0.888458,-1.356634 1.190002,-3.015108 0.835938,-4.597656 0.906446,-0.298324 1.728672,-0.808534 2.398436,-1.488282 L 44.9375,46 c 0,0 1.068444,-0.566498 2.175782,-1.585938 l 4.34375,-4 c 0.479974,-0.445642 0.883752,-0.966858 1.195312,-1.542968 L 54.125,37.710938 c 1.725652,-1.3625 2.56795,-3.559762 2.195312,-5.726562 v -0.004 c 0.17952,-1.079082 0.06066,-2.186708 -0.34375,-3.203124 0.013,-0.1442 0.02084,-0.288834 0.02344,-0.433594 V 28.01944 l -0.214844,0.17578 C 57.18663,27.055704 58.000174,25.345396 58,23.539062 v 0.40625 l 1.058594,-0.628906 C 60.88129,22.236256 61.99927,20.274964 62,18.15625 V 10 C 61.999226,6.761266 59.428482,4.1075382 56.191406,4.0039062 54.776786,3.9590122 53.391826,4.4155926 52.28125,5.2929688 L 38.21875,16.398438 C 36.488736,14.975729 34.372864,14 32,14 c -2.372864,0 -4.488736,0.975729 -6.21875,2.398438 L 11.71875,5.2929688 C 10.608174,4.4155926 9.2232146,3.9590126 7.8085938,4.0039062 Z"/>
 <path style="opacity:0.2" d="m 8,11 v 8.15625 l 4,2.371094 v 3.011718 l 2,1.625 V 29.34375 L 17.347656,31 H 15.1875 l -1.597656,1 H 16 v 2 h -2.410156 l 3.804687,3 h -0.789062 l 4.343749,4 h 0.63672 l 2.9375,3 h 5.472656 l -1.73047,3 h 2.535158 L 30.246094,47.960938 28.492188,51 h 0.683594 A 3,3 0 0 0 29,52 a 3,3 0 0 0 3,3 3,3 0 0 0 3,-3 3,3 0 0 0 -0.175782,-1 h 0.683594 L 33.753906,47.960938 33.199218,47 h 2.535158 l -1.73047,-3 h 5.472656 l 2.9375,-3 h 0.63672 l 4.34375,-4 h -0.789064 l 3.804688,-3 H 48 v -2 h 2.410156 L 48.8125,31 H 46.652344 L 50,29.34375 v -3.179688 l 2,-1.625 V 21.527344 L 56,19.15625 V 11 L 36.046876,26.757812 37.878906,29.140624 36.375,31 H 33.425782 L 33.867188,30.234376 35.734376,27 H 35.460938 A 4,4 0 0 0 36,25 a 4,4 0 0 0 -4,-4 4,4 0 0 0 -4,4 4,4 0 0 0 0.542968,2 H 28.265624 L 30.132812,30.234376 30.574218,31 H 27.625 l -1.503906,-1.859376 1.83203,-2.382812 z"/>
 <path style="fill:#8d5cfe" d="M 36.047958,25.755912 37.880246,28.14107 35.164,31.5 h 8.455908 l 6.380182,-3.158152 v -3.176284 l 2,-1.62811 v -3.011726 l 4,-2.371282 V 10 Z"/>
 <path style="fill:#8d5cfe" d="M 27.952132,25.755912 26.119844,28.14107 28.83609,31.5 H 20.380182 L 14,28.341848 v -3.176284 l -2,-1.62811 V 20.525728 L 8,18.154446 V 10 Z"/>
 <path style="fill:#59deb1" d="m 15.187322,30 -1.596413,1 H 16 v 2 h -2.409091 l 3.804066,3 H 32 46.605026 L 50.40909,33 H 48 v -2 h 2.40909 L 48.812678,30 H 32 Z"/>
 <path style="fill:#48c1d6" d="M 31.999998,30.218976 27.321738,36 H 16.607262 l 4.340736,4 h 11.052 11.052004 l 4.340736,-4 H 36.678262 Z"/>
 <path style="fill:#3ea2de" d="M 31.999998,35.236364 28.835252,40 h -7.24812 l 2.936418,3 h 7.476448 7.47645 l 2.936418,-3 h -7.24812 z"/>
 <path style="fill:#3d87dd" d="m 32,39.531502 1.867294,3.23425 L 35.73459,46 H 32 28.26541 l 1.867296,-3.234248 z"/>
 <path style="fill:#3d69df" d="M 32,43.922272 33.754488,46.961136 35.508978,50 32,49.999998 h -3.508978 l 1.75449,-3.038862 z"/>
 <circle style="fill:#3d48e1" cx="32" cy="51" r="3"/>
 <path style="fill:#52bae1" d="M 32,32.468496 30.132706,29.234248 28.26541,26 H 32 35.73459 l -1.867296,3.234248 z"/>
 <circle style="fill:#5372ec" cx="32" cy="24" r="4"/>
 <path style="opacity:0.1;fill:#ffffff" d="M 7.8085938 4.0039062 C 4.5715182 4.1075386 2.0007738 6.761266 2 10 L 2 11 C 2.0007738 7.761266 4.5715182 5.1075386 7.8085938 5.0039062 C 9.2232146 4.9590126 10.608174 5.4155926 11.71875 6.2929688 L 25.78125 17.398438 C 27.511264 15.975729 29.627136 15 32 15 C 34.372864 15 36.488736 15.975729 38.21875 17.398438 L 52.28125 6.2929688 C 53.391826 5.4155926 54.776786 4.9590122 56.191406 5.0039062 C 59.428482 5.1075382 61.999226 7.761266 62 11 L 62 10 C 61.999226 6.761266 59.428482 4.1075382 56.191406 4.0039062 C 54.776786 3.9590122 53.391826 4.4155926 52.28125 5.2929688 L 38.21875 16.398438 C 36.488736 14.975729 34.372864 14 32 14 C 29.627136 14 27.511264 14.975729 25.78125 16.398438 L 11.71875 5.2929688 C 10.608174 4.4155926 9.2232146 3.9590126 7.8085938 4.0039062 z M 7.9628906 28.966797 C 7.6757812 29.764678 7.5644067 30.610099 7.6289062 31.453125 C 7.6809019 30.880956 7.8090816 30.316095 8.0234375 29.777344 C 8.0103995 29.633142 8.00258 29.48851 8 29.34375 L 8 29.019531 L 8.2148438 29.195312 C 8.1263458 29.12335 8.046643 29.043191 7.9628906 28.966797 z M 56.037109 28.966797 C 55.953357 29.043186 55.873654 29.123356 55.785156 29.195312 L 56 29.019531 L 56 29.34375 C 55.9974 29.48851 55.989562 29.633144 55.976562 29.777344 C 56.19092 30.316095 56.319099 30.880956 56.371094 31.453125 C 56.435592 30.610099 56.32422 29.764678 56.037109 28.966797 z M 7.6308594 32.464844 C 7.5981405 32.828617 7.5882629 33.191038 7.6210938 33.548828 C 7.6353465 33.360764 7.6473266 33.172546 7.6796875 32.984375 L 7.6796875 32.980469 C 7.6512092 32.809292 7.6443715 32.636979 7.6308594 32.464844 z M 56.369141 32.464844 C 56.355629 32.636979 56.34879 32.809292 56.320312 32.980469 L 56.320312 32.984375 C 56.352673 33.172546 56.364653 33.360764 56.378906 33.548828 C 56.411737 33.191038 56.40186 32.828617 56.369141 32.464844 z M 22.509766 49.636719 C 22.491843 49.934279 22.491416 50.232163 22.517578 50.527344 C 22.539662 50.246336 22.57444 49.965865 22.636719 49.6875 C 22.593242 49.673191 22.552848 49.651998 22.509766 49.636719 z M 41.490234 49.636719 C 41.447152 49.651998 41.406758 49.673191 41.363281 49.6875 C 41.42556 49.965865 41.460338 50.246336 41.482422 50.527344 C 41.508584 50.232163 41.508157 49.934279 41.490234 49.636719 z"/>
 <path style="fill:#ffffff;opacity:0.2" d="M 8 10 L 8 11 L 27.472656 26.378906 L 27.951172 25.755859 L 8 10 z M 56 10 L 36.048828 25.755859 L 36.527344 26.378906 L 56 11 L 56 10 z M 32 20 A 4 4 0 0 0 28 24 A 4 4 0 0 0 28.037109 24.498047 A 4 4 0 0 1 32 21 A 4 4 0 0 1 35.966797 24.507812 A 4 4 0 0 0 36 24 A 4 4 0 0 0 32 20 z M 26.513672 28.626953 L 26.119141 29.140625 L 27.623047 31 L 30.574219 31 L 30.132812 30.234375 L 29.998047 30 L 27.623047 30 L 26.513672 28.626953 z M 37.486328 28.626953 L 36.376953 30 L 34.001953 30 L 33.867188 30.234375 L 33.425781 31 L 36.376953 31 L 37.880859 29.140625 L 37.486328 28.626953 z M 15.1875 30 L 13.591797 31 L 15.1875 31 L 16 31 L 17.349609 31 L 15.330078 30 L 15.1875 30 z M 48.669922 30 L 46.650391 31 L 48 31 L 48.8125 31 L 50.408203 31 L 48.8125 30 L 48.669922 30 z M 13.591797 33 L 14.859375 34 L 16 34 L 16 33 L 13.591797 33 z M 48 33 L 48 34 L 49.140625 34 L 50.408203 33 L 48 33 z M 29.419922 44 L 28.265625 46 L 28.84375 46 L 29.998047 44 L 29.419922 44 z M 34.001953 44 L 35.15625 46 L 35.734375 46 L 34.580078 44 L 34.001953 44 z M 30.222656 47 L 28.490234 50 L 29.068359 50 L 30.246094 47.960938 L 30.800781 47 L 30.222656 47 z M 33.199219 47 L 33.753906 47.960938 L 34.931641 50 L 35.509766 50 L 33.777344 47 L 33.199219 47 z M 29 51 A 3 3 0 0 0 29.046875 51.503906 A 3 3 0 0 1 29.175781 51 L 29 51 z M 34.826172 51 A 3 3 0 0 1 34.957031 51.513672 A 3 3 0 0 0 35 51 L 34.826172 51 z"/>
</svg>

<?xml version="1.0" encoding="UTF-8" standalone="no"?>
<svg
   id="_图层_1"
   version="1.1"
   viewBox="0 0 64 64" width="64" height="64"
   sodipodi:docname="oolite.svg"
   xml:space="preserve"
   inkscape:version="1.4 (e7c3feb100, 2024-10-09)"
   xmlns:inkscape="http://www.inkscape.org/namespaces/inkscape"
   xmlns:sodipodi="http://sodipodi.sourceforge.net/DTD/sodipodi-0.dtd"
   xmlns="http://www.w3.org/2000/svg"
   xmlns:svg="http://www.w3.org/2000/svg"><sodipodi:namedview
     id="namedview26"
     pagecolor="#505050"
     bordercolor="#eeeeee"
     borderopacity="1"
     inkscape:showpageshadow="0"
     inkscape:pageopacity="0"
     inkscape:pagecheckerboard="0"
     inkscape:deskcolor="#505050"
     inkscape:zoom="10.6875"
     inkscape:cx="32"
     inkscape:cy="32"
     inkscape:window-width="1920"
     inkscape:window-height="939"
     inkscape:window-x="0"
     inkscape:window-y="34"
     inkscape:window-maximized="1"
     inkscape:current-layer="_图层_1"
     showguides="true"><sodipodi:guide
       position="24.129209,43.688782"
       orientation="1,0"
       id="guide47"
       inkscape:locked="false" /><sodipodi:guide
       position="39.990611,54.528988"
       orientation="1,0"
       id="guide48"
       inkscape:locked="false" /><sodipodi:guide
       position="31.294665,46.979418"
       orientation="0,-1"
       id="guide49"
       inkscape:locked="false" /><sodipodi:guide
       position="22.407535,30.743878"
       orientation="0,-1"
       id="guide50"
       inkscape:locked="false" /></sodipodi:namedview><!-- Generator: Adobe Illustrator 29.0.1, SVG Export Plug-In . SVG Version: 2.1.0 Build 192)  --><defs
     id="defs6"><style
       id="style1">
      .st0 {
        fill-opacity: .5;
      }

      .st0, .st1, .st2, .st3, .st4, .st5, .st6, .st7 {
        fill: #fff;
      }

      .st8 {
        fill: #133c9a;
      }

      .st2, .st9 {
        display: none;
      }

      .st3 {
        fill-opacity: .2;
      }

      .st4 {
        fill-opacity: .9;
      }

      .st10 {
        fill: #3370ff;
      }

      .st11 {
        fill: url(#_未命名的渐变_3);
      }

      .st12 {
        fill: url(#_未命名的渐变);
      }

      .st5 {
        fill-opacity: .3;
      }

      .st6 {
        fill-opacity: 0;
      }

      .st7 {
        fill-opacity: .7;
      }

      .st13 {
        fill: #00d6b9;
      }

      .st14 {
        fill: url(#_未命名的渐变_2);
      }
    </style><radialGradient
       id="_未命名的渐变"
       data-name="未命名的渐变"
       cx="123.9"
       cy="-40.2"
       fx="123.9"
       fy="-40.2"
       r="59.4"
       gradientTransform="translate(-26.8 25.5) scale(.6 -.7)"
       gradientUnits="userSpaceOnUse"><stop
         offset="0"
         stop-color="#db202e"
         id="stop1" /><stop
         offset="1"
         stop-color="#e01b24"
         id="stop2" /></radialGradient><radialGradient
       id="_未命名的渐变_2"
       data-name="未命名的渐变 2"
       cx="67.6"
       cy="26.8"
       fx="67.6"
       fy="26.8"
       r="105.2"
       gradientTransform="translate(-26.6 25.3) scale(.6 -.7)"
       gradientUnits="userSpaceOnUse"><stop
         offset="0"
         stop-color="#ffb648"
         id="stop3" /><stop
         offset="1"
         stop-color="#ff7800"
         stop-opacity="0"
         id="stop4" /></radialGradient><radialGradient
       id="_未命名的渐变_3"
       data-name="未命名的渐变 3"
       cx="61.7"
       cy="18.6"
       fx="61.7"
       fy="18.6"
       r="68"
       gradientTransform="translate(-26.8 25.8) scale(.6 -.7)"
       gradientUnits="userSpaceOnUse"><stop
         offset="0"
         stop-color="#c64600"
         id="stop5" /><stop
         offset="1"
         stop-color="#a51d2d"
         id="stop6" /></radialGradient></defs><path
     class="st1"
     d="M47.5,64.1H13.8c-7.6,0-13.8-6.3-13.8-13.8V13.7C0,6.2,6.2,0,13.7,0h36.6c7.5,0,13.7,6.2,13.7,13.7v36.6c0,7.5-6.2,13.7-13.7,13.7h-2.9.1Z"
     id="path6"
     style="fill:#4f4f4f;fill-opacity:1" /><g
     id="g58"
     transform="matrix(0.84873294,0,0,0.8276366,4.8873299,6.9903334)"><path
       style="opacity:0.2"
       d="M 7.8085938,5.0039062 C 4.5715182,5.1075386 2.0007738,7.761266 2,11 v 8.15625 c 7.294e-4,2.118714 1.1187104,4.080006 2.9414062,5.160156 L 6,24.945312 v -0.40625 c -1.75e-4,1.806334 0.8133692,3.516642 2.2148438,4.65625 L 8,29.019532 v 0.324218 c 0.00258,0.14476 0.0104,0.289392 0.023438,0.433594 -0.404407,1.016416 -0.5232746,2.124042 -0.34375,3.203124 v 0.004 c -0.3726378,2.1668 0.469661,4.364062 2.1953124,5.726562 l 1.4726566,1.160156 c 0.31156,0.57611 0.715338,1.097326 1.195312,1.542968 l 4.34375,4 C 17.994058,46.433502 19.0625,47 19.0625,47 l 1.175782,1.199218 c 0.669764,0.679748 1.49199,1.189958 2.398436,1.488282 -0.354064,1.582548 -0.05252,3.241022 0.835938,4.597656 C 24.525186,58.084372 27.906502,61 32,61 c 4.093498,0 7.474814,-2.915628 8.527344,-6.714844 0.888458,-1.356634 1.190002,-3.015108 0.835938,-4.597656 0.906446,-0.298324 1.728672,-0.808534 2.398436,-1.488282 L 44.9375,47 c 0,0 1.068444,-0.566498 2.175782,-1.585938 l 4.34375,-4 c 0.479974,-0.445642 0.883752,-0.966858 1.195312,-1.542968 L 54.125,38.710938 c 1.725652,-1.3625 2.56795,-3.559762 2.195312,-5.726562 v -0.004 c 0.17952,-1.079082 0.06066,-2.186708 -0.34375,-3.203124 0.013,-0.1442 0.02084,-0.288834 0.02344,-0.433594 V 29.01944 l -0.214844,0.17578 C 57.18663,28.055704 58.000174,26.345396 58,24.539062 v 0.40625 l 1.058594,-0.628906 C 60.88129,23.236256 61.99927,21.274964 62,19.15625 V 11 C 61.999226,7.761266 59.428482,5.1075382 56.191406,5.0039062 54.776786,4.9590122 53.391826,5.4155926 52.28125,6.2929688 L 38.21875,17.398438 C 36.488736,15.975729 34.372864,15 32,15 c -2.372864,0 -4.488736,0.975729 -6.21875,2.398438 L 11.71875,6.2929688 C 10.608174,5.4155926 9.2232146,4.9590126 7.8085938,5.0039062 Z"
       id="path1" /><path
       style="fill:#3f3f3f"
       d="M 7.8085938,4.0039062 C 4.5715182,4.1075386 2.0007738,6.761266 2,10 v 8.15625 c 7.294e-4,2.118714 1.1187104,4.080006 2.9414062,5.160156 L 6,23.945312 v -0.40625 c -1.75e-4,1.806334 0.8133692,3.516642 2.2148438,4.65625 L 8,28.019532 v 0.324218 c 0.00258,0.14476 0.0104,0.289392 0.023438,0.433594 -0.404407,1.016416 -0.5232746,2.124042 -0.34375,3.203124 v 0.004 c -0.3726378,2.1668 0.469661,4.364062 2.1953124,5.726562 l 1.4726566,1.160156 c 0.31156,0.57611 0.715338,1.097326 1.195312,1.542968 l 4.34375,4 C 17.994058,45.433502 19.0625,46 19.0625,46 l 1.175782,1.199218 c 0.669764,0.679748 1.49199,1.189958 2.398436,1.488282 -0.354064,1.582548 -0.05252,3.241022 0.835938,4.597656 C 24.525186,57.084372 27.906502,60 32,60 c 4.093498,0 7.474814,-2.915628 8.527344,-6.714844 0.888458,-1.356634 1.190002,-3.015108 0.835938,-4.597656 0.906446,-0.298324 1.728672,-0.808534 2.398436,-1.488282 L 44.9375,46 c 0,0 1.068444,-0.566498 2.175782,-1.585938 l 4.34375,-4 c 0.479974,-0.445642 0.883752,-0.966858 1.195312,-1.542968 L 54.125,37.710938 c 1.725652,-1.3625 2.56795,-3.559762 2.195312,-5.726562 v -0.004 c 0.17952,-1.079082 0.06066,-2.186708 -0.34375,-3.203124 0.013,-0.1442 0.02084,-0.288834 0.02344,-0.433594 V 28.01944 l -0.214844,0.17578 C 57.18663,27.055704 58.000174,25.345396 58,23.539062 v 0.40625 l 1.058594,-0.628906 C 60.88129,22.236256 61.99927,20.274964 62,18.15625 V 10 C 61.999226,6.761266 59.428482,4.1075382 56.191406,4.0039062 54.776786,3.9590122 53.391826,4.4155926 52.28125,5.2929688 L 38.21875,16.398438 C 36.488736,14.975729 34.372864,14 32,14 c -2.372864,0 -4.488736,0.975729 -6.21875,2.398438 L 11.71875,5.2929688 C 10.608174,4.4155926 9.2232146,3.9590126 7.8085938,4.0039062 Z"
       id="path2" /><path
       style="opacity:0.2"
       d="m 8,11 v 8.15625 l 4,2.371094 v 3.011718 l 2,1.625 V 29.34375 L 17.347656,31 H 15.1875 l -1.597656,1 H 16 v 2 h -2.410156 l 3.804687,3 h -0.789062 l 4.343749,4 h 0.63672 l 2.9375,3 h 5.472656 l -1.73047,3 h 2.535158 L 30.246094,47.960938 28.492188,51 h 0.683594 A 3,3 0 0 0 29,52 a 3,3 0 0 0 3,3 3,3 0 0 0 3,-3 3,3 0 0 0 -0.175782,-1 h 0.683594 L 33.753906,47.960938 33.199218,47 h 2.535158 l -1.73047,-3 h 5.472656 l 2.9375,-3 h 0.63672 l 4.34375,-4 h -0.789064 l 3.804688,-3 H 48 v -2 h 2.410156 L 48.8125,31 H 46.652344 L 50,29.34375 v -3.179688 l 2,-1.625 V 21.527344 L 56,19.15625 V 11 L 36.046876,26.757812 37.878906,29.140624 36.375,31 H 33.425782 L 33.867188,30.234376 35.734376,27 H 35.460938 A 4,4 0 0 0 36,25 a 4,4 0 0 0 -4,-4 4,4 0 0 0 -4,4 4,4 0 0 0 0.542968,2 H 28.265624 L 30.132812,30.234376 30.574218,31 H 27.625 l -1.503906,-1.859376 1.83203,-2.382812 z"
       id="path3" /><path
       style="fill:#8d5cfe"
       d="M 36.047958,25.755912 37.880246,28.14107 35.164,31.5 h 8.455908 l 6.380182,-3.158152 v -3.176284 l 2,-1.62811 v -3.011726 l 4,-2.371282 V 10 Z"
       id="path4-6" /><path
       style="fill:#8d5cfe"
       d="M 27.952132,25.755912 26.119844,28.14107 28.83609,31.5 H 20.380182 L 14,28.341848 v -3.176284 l -2,-1.62811 V 20.525728 L 8,18.154446 V 10 Z"
       id="path5" /><path
       style="fill:#59deb1"
       d="m 15.187322,30 -1.596413,1 H 16 v 2 h -2.409091 l 3.804066,3 H 32 46.605026 L 50.40909,33 H 48 v -2 h 2.40909 L 48.812678,30 H 32 Z"
       id="path6-1" /><path
       style="fill:#48c1d6"
       d="M 31.999998,30.218976 27.321738,36 H 16.607262 l 4.340736,4 h 11.052 11.052004 l 4.340736,-4 H 36.678262 Z"
       id="path7" /><path
       style="fill:#3ea2de"
       d="M 31.999998,35.236364 28.835252,40 h -7.24812 l 2.936418,3 h 7.476448 7.47645 l 2.936418,-3 h -7.24812 z"
       id="path8" /><path
       style="fill:#3d87dd"
       d="m 32,39.531502 1.867294,3.23425 L 35.73459,46 H 32 28.26541 l 1.867296,-3.234248 z"
       id="path9" /><path
       style="fill:#3d69df"
       d="M 32,43.922272 33.754488,46.961136 35.508978,50 32,49.999998 h -3.508978 l 1.75449,-3.038862 z"
       id="path10" /><circle
       style="fill:#3d48e1"
       cx="32"
       cy="51"
       r="3"
       id="circle10" /><path
       style="fill:#52bae1"
       d="M 32,32.468496 30.132706,29.234248 28.26541,26 H 32 35.73459 l -1.867296,3.234248 z"
       id="path11" /><circle
       style="fill:#5372ec"
       cx="32"
       cy="24"
       r="4"
       id="circle11" /><path
       style="opacity:0.1;fill:#ffffff"
       d="M 7.8085938,4.0039062 C 4.5715182,4.1075386 2.0007738,6.761266 2,10 v 1 C 2.0007738,7.761266 4.5715182,5.1075386 7.8085938,5.0039062 9.2232146,4.9590126 10.608174,5.4155926 11.71875,6.2929688 L 25.78125,17.398438 C 27.511264,15.975729 29.627136,15 32,15 c 2.372864,0 4.488736,0.975729 6.21875,2.398438 L 52.28125,6.2929688 C 53.391826,5.4155926 54.776786,4.9590122 56.191406,5.0039062 59.428482,5.1075382 61.999226,7.761266 62,11 V 10 C 61.999226,6.761266 59.428482,4.1075382 56.191406,4.0039062 54.776786,3.9590122 53.391826,4.4155926 52.28125,5.2929688 L 38.21875,16.398438 C 36.488736,14.975729 34.372864,14 32,14 c -2.372864,0 -4.488736,0.975729 -6.21875,2.398438 L 11.71875,5.2929688 C 10.608174,4.4155926 9.2232146,3.9590126 7.8085938,4.0039062 Z M 7.9628906,28.966797 C 7.6757812,29.764678 7.5644067,30.610099 7.6289062,31.453125 7.6809019,30.880956 7.8090816,30.316095 8.0234375,29.777344 8.0103995,29.633142 8.00258,29.48851 8,29.34375 v -0.324219 l 0.2148438,0.175781 C 8.1263458,29.12335 8.046643,29.043191 7.9628906,28.966797 Z m 48.0742184,0 c -0.08375,0.07639 -0.163455,0.156559 -0.251953,0.228515 L 56,29.019531 v 0.324219 c -0.0026,0.14476 -0.01044,0.289394 -0.02344,0.433594 0.214358,0.538751 0.342537,1.103612 0.394532,1.675781 0.0645,-0.843026 -0.04687,-1.688447 -0.333985,-2.486328 z M 7.6308594,32.464844 c -0.032719,0.363773 -0.042597,0.726194 -0.00977,1.083984 0.014253,-0.188064 0.026233,-0.376282 0.058594,-0.564453 v -0.0039 c -0.028478,-0.171177 -0.035316,-0.34349 -0.048828,-0.515625 z m 48.7382816,0 c -0.01351,0.172135 -0.02035,0.344448 -0.04883,0.515625 v 0.0039 c 0.03236,0.188171 0.04434,0.376389 0.05859,0.564453 0.03283,-0.35779 0.02295,-0.720211 -0.0098,-1.083984 z M 22.509766,49.636719 c -0.01792,0.29756 -0.01835,0.595444 0.0078,0.890625 0.02208,-0.281008 0.05686,-0.561479 0.119141,-0.839844 -0.04348,-0.01431 -0.08387,-0.0355 -0.126953,-0.05078 z m 18.980468,0 c -0.04308,0.01528 -0.08348,0.03647 -0.126953,0.05078 0.06228,0.278365 0.09706,0.558836 0.119141,0.839844 0.02616,-0.295181 0.02573,-0.593065 0.0078,-0.890625 z"
       id="path12" /><path
       style="opacity:0.2;fill:#ffffff"
       d="m 8,10 v 1 l 19.472656,15.378906 0.478516,-0.623047 z M 56,10 36.048828,25.755859 36.527344,26.378906 56,11 Z M 32,20 a 4,4 0 0 0 -4,4 4,4 0 0 0 0.03711,0.498047 A 4,4 0 0 1 32,21 4,4 0 0 1 35.966797,24.507812 4,4 0 0 0 36,24 4,4 0 0 0 32,20 Z M 26.513672,28.626953 26.119141,29.140625 27.623047,31 h 2.951172 L 30.132812,30.234375 29.998047,30 h -2.375 z m 10.972656,0 L 36.376953,30 h -2.375 L 33.867188,30.234375 33.425781,31 h 2.951172 l 1.503906,-1.859375 z M 15.1875,30 13.591797,31 H 15.1875 16 17.349609 l -2.019531,-1 z m 33.482422,0 -2.019531,1 H 48 48.8125 50.408203 L 48.8125,30 Z m -35.078125,3 1.267578,1 H 16 V 33 Z M 48,33 v 1 h 1.140625 l 1.267578,-1 z m -18.580078,11 -1.154297,2 h 0.578125 l 1.154297,-2 z m 4.582031,0 1.154297,2 h 0.578125 l -1.154297,-2 z m -3.779297,3 -1.732422,3 h 0.578125 L 30.246094,47.960938 30.800781,47 Z m 2.976563,0 0.554687,0.960938 L 34.931641,50 h 0.578125 L 33.777344,47 Z M 29,51 A 3,3 0 0 0 29.04687,51.503906 3,3 0 0 1 29.175781,51 Z m 5.826172,0 A 3,3 0 0 1 34.957031,51.513672 3,3 0 0 0 35,51 Z"
       id="path13" /></g></svg>
